nova/resources/svg/fluent/lightbulb.svg

<svg viewBox="0 0 24 24" fill="none" xmlns="http://www.w3.org/2000/svg">
<path d="M12 2.00098C16.0041 2.00098 19.25 5.24691 19.25 9.25098C19.25 11.347 18.3493 13.2707 16.5869 14.9929C16.51 15.0681 16.4504 15.1586 16.4118 15.2582L16.3804 15.3605L15.2493 20.2561C15.0266 21.22 14.2035 21.9183 13.2302 21.993L13.057 21.9996H10.9433C9.95374 21.9996 9.08791 21.3545 8.79629 20.4228L8.75088 20.2555L7.62132 15.3607C7.58904 15.2208 7.51728 15.0931 7.41456 14.9928C5.73515 13.3526 4.83778 11.5297 4.75613 9.54923L4.75 9.25098L4.75388 9.01166C4.88014 5.11837 8.07601 2.00098 12 2.00098ZM14.115 18.499H9.884L10.2125 19.9182C10.2831 20.2245 10.5357 20.4504 10.8401 20.4925L10.9433 20.4996H13.057C13.3713 20.4996 13.6481 20.3044 13.7577 20.0174L13.7878 19.9184L14.115 18.499ZM12 3.50098C8.89821 3.50098 6.37006 5.95699 6.25415 9.03042L6.25 9.25098L6.25672 9.52799C6.33286 11.0913 7.05722 12.5471 8.46262 13.9197C8.72675 14.1777 8.92265 14.496 9.03422 14.846L9.08291 15.0235L9.538 16.999H14.461L14.9189 15.0228C15.0019 14.6634 15.1718 14.3309 15.4124 14.0539L15.5386 13.9201C16.9432 12.5475 17.6672 11.0916 17.7433 9.52803L17.75 9.25098L17.7458 9.03042C17.6299 5.95699 15.1018 3.50098 12 3.50098Z" fill="currentColor"/>
</svg>

<svg viewBox="0 0 24 24" fill="none" xmlns="http://www.w3.org/2000/svg"><path d="M12 2.001a7.25 7.25 0 017.25 7.25c0 2.097-.9 4.02-2.663 5.742a.751.751 0 00-.175.266l-.032.102-1.13 4.895a2.25 2.25 0 01-2.02 1.737l-.173.007h-2.114a2.25 2.25 0 01-2.147-1.577l-.045-.167-1.13-4.895a.75.75 0 00-.206-.368c-1.68-1.64-2.577-3.463-2.659-5.443L4.75 9.25l.004-.239A7.25 7.25 0 0112 2.002zM14.115 18.5H9.884l.329 1.42a.75.75 0 00.627.574l.103.007h2.114a.75.75 0 00.7-.482l.03-.1.328-1.419zM12 3.501a5.75 5.75 0 00-5.746 5.53l-.004.22.007.277c.076 1.564.8 3.02 2.206 4.392.264.258.46.576.571.926l.049.178.455 1.975h4.923l.458-1.976a2.25 2.25 0 01.493-.969l.127-.133c1.404-1.373 2.128-2.829 2.204-4.393l.007-.277-.004-.22A5.75 5.75 0 0012 3.5z" fill="currentColor"/></svg>
